X: 9
T: Bank Of Ireland, The
Z: tziguk
S: https://thesession.org/tunes/320#setting53465
R: reel
M: 4/4
L: 1/8
K: Dmix
|:c2AB cBAG|EGDG EGAB|c2AB cBAG|Add^c dfed|
c2AB cB AG|EGDG EGAB|c2AB cBAG|1Add^c d2 z2:|2 Add^cd2de||
K:Dmaj
|:f2df e2ec|dfed cAA2|fedf efge|afge d2cd|
eaag efge|dfed =cAGB|Addc defg|1afge d2de:||2afge d2z2||

%-------------------- TUNE SEPARATOR --------------------%

